X:182
T: Venus, du und dein Kind
N: A0219A
O: Europa, Mitteleuropa, Deutschland
N: Jac. Regnart, Kurtzweilige teutsche Liedlein. Wien 1574 No. 8.
N: Nur der volksthuemlich gewordenen Melodie halber wurde dies
N: Kunstlied hier aufgenommen.
R: Romanze, Ballade, Lied
M: 4/4
L: 1/8
K: D
=F2 | =F2A2A2G2 | A4z2
A2 | A3G=F2F2 | E4z2
E2 | =F2G2A2_B2 | G4A2
E2 | =F2G2A2_B2 | G4A2
A2 | =c3_BA2A2 | G4G2
A2 | A3G=F2G2 | E4D2

